svgs/charts/line-chart-up-05.svg

<svg width="24" height="24" viewBox="0 0 24 24" fill="none" xmlns="http://www.w3.org/2000/svg">
<path d="M18 10L14.5657 13.4343C14.3677 13.6323 14.2687 13.7313 14.1545 13.7684C14.0541 13.8011 13.9459 13.8011 13.8455 13.7684C13.7313 13.7313 13.6323 13.6323 13.4343 13.4343L10.5657 10.5657C10.3677 10.3677 10.2687 10.2687 10.1545 10.2316C10.0541 10.1989 9.94591 10.1989 9.84549 10.2316C9.73133 10.2687 9.63232 10.3677 9.43431 10.5657L6 14M22 12C22 17.5228 17.5228 22 12 22C6.47715 22 2 17.5228 2 12C2 6.47715 6.47715 2 12 2C17.5228 2 22 6.47715 22 12Z" stroke="#1C1D20" stroke-width="1.5" stroke-linecap="round" stroke-linejoin="round"/>
</svg>

<svg fill="none" xmlns="http://www.w3.org/2000/svg" viewBox="0 0 24 24"><path d="m18 10-3.434 3.434c-.198.198-.297.297-.412.334a.499.499 0 0 1-.309 0c-.114-.037-.213-.136-.41-.334l-2.87-2.868c-.197-.198-.296-.297-.41-.334a.499.499 0 0 0-.31 0c-.114.037-.213.136-.41.334L6 14m16-2c0 5.523-4.477 10-10 10S2 17.523 2 12 6.477 2 12 2s10 4.477 10 10Z" stroke="#1C1D20" stroke-width="1.5" stroke-linecap="round" stroke-linejoin="round"/></svg>
